X:251
T:Danza (CT 072)
R:Danza
C:Tradicional
S:Msica Tradicional Asturiana, (C) Tello & Tito. Asturies, 2001.
S:http://pagina.de/MusTradAst <telloytito@asturies.org>
N:Danza, dictada por Rosala Osorio, de veintids aos, de Pino d'Ayer, ayuntamiento de Ayer.
N:Toman parte en esta danza solamente mujers.
A:Asturies
O:Pino d'Ayer (Ayer)
Z:Cancioneru de Torner 072
M:6/8
L:1/8
Q:3/8=80
K:C
B
|BcA G2 A|G3-G2 B|BcA G2 B|B3-B z d|ded c2 {B}A|G2 G-G3-|G2 z3 B|
BcA G2 A|G2 G-G2 B|BcA G2 B|B2 B-B z d|ded c2 {B}A|G2 G-G3-|G2 z4||
W:Hoy aqu, maana all,
W:hoy aqu, maana all,
W:dicen los mozos de ahora,
W:dicen los mozos de ahora;
W:poco entendimiento tiene
W:la nia que se enamora.
W:
